**kern	**kern	**dynam
*part1	*part1	*part1
*staff2	*staff1	*
*I"Piano	*	*
*clefF4	*clefG2	*
*k[f#]	*k[f#]	*
*M2/4	*M2/4	*
=1	=1	=1
(4.AA' 4.F#	(4.d' 4.cc	p
8AA') 8F#	8d') 8cc	.
=	=	=
(4AA 4F#	(4d 4cc	.
4BB 4G	4d 4b	.
=	=	=
4C 4G	4e 4a	.
[4D	4d 4f# 4b	.
=	=	=
2GG) 2D] 2B	4d 4g	.
.	4d)	.
=	=	=
4.AA 4.F#	4.d 4.cc	.
8AA 8F#	8d 8cc	.
=	=	=
4AA 4F#	4d 4cc	.
4BB 4G	4d 4b	.
=	=	=
4C 4G	4e 4a	.
[4D	4d 4f# 4b	.
=	=	=
2GG 2D] 2B	4d 4g	.
.	4d	.
=	=	=
4.C 4.G	4.c 4.e	.
8C 8G	8c 8e	.
=	=	=
*-	*-	*-
!!!system-decoration: {(s1,s2)}
